img/razor-top-black.svg

<svg xmlns="http://www.w3.org/2000/svg" width="1920" height="40"><path fill-rule="evenodd" d="m1827.156 15.021-.027-.027h6.656l-.026.027h-6.603zm-2.191 9.015h11.004l-5.508-5.478 3.298-3.537H1920v24.054H.001V15.013h271.883l7.653-8.083h12.921l15.968 17.106.023-.023.018.023 9.171-9.015h145.603l3.298 3.537-5.508 5.478h11.004l-5.496-5.478 3.305-3.537h81.713l4.694-4.443 9.246-9.22 6.166 5.708 31.247-.011h5.009l12.659 12.928h33.631l7.239-7.026 74.261.038 5.771 5.559 8.649-8.624 2.891 3.065 165.161-.038L930.942.066l24.051 23.97.007-.012.012.012 9.052-9.023h3.842l2.099 2.093-3.335 3.313h6.656l-3.321-3.313 2.062-2.051 77.933-.032v-.01l14.03.004 7.97-.004v.006l153.933.036 2.061 2.051-3.32 3.313h6.657l-3.337-3.313 2.1-2.093h3.842l9.053 9.023.011-.012.007.012 24.051-23.97 12.761 12.891 89.161.038 2.891-3.065 8.649 8.624 5.77-5.497 249.262-.038 7.238 6.964h33.632l12.658-12.991 36.257.011 6.165-5.645 9.247 9.22 4.694 4.443h81.713l3.305 3.537-5.496 5.478zM341.624 18.857h-1.735v5.179h1.735v-5.179zm2.624 0h-1.73v5.179h1.73v-5.179zm12.122 0h-1.73v5.179h1.73v-5.179zm20.798 0h-5.195v5.179h5.195v-5.179zm207.507-6.509h-1.734v1.725h1.734v-1.725zm6.641 0h-1.734v5.178h1.734v-5.178zm13.435 0h-1.734v1.725h1.734v-1.725zm0 3.454h-1.734v1.724h1.734v-1.724zm1089.232-3.454h-1.734v1.725h1.734v-1.725zm0 3.454h-1.734v1.724h1.734v-1.724zm13.435-3.454h-1.735v5.178h1.735v-5.178zm6.641 0h-1.735v1.725h1.735v-1.725zM463.214 14.994h6.657l-.027.027h-6.603l-.027-.027zm291.008-9.018-4.093 3.954-4.104-3.954h8.197zm621.753 0-4.104 3.954-4.093-3.954h8.197z"/></svg>

<svg xmlns="http://www.w3.org/2000/svg" xmlns:xlink="http://www.w3.org/1999/xlink" width="1920px" height="40px">
<path fill-rule="evenodd" fill="rgb(0, 0, 0)" d="M1827.156,15.021 L1827.129,14.994 L1833.785,14.994 L1833.759,15.021 L1827.156,15.021 ZM1824.965,24.036 L1835.969,24.036 L1830.461,18.558 L1833.759,15.021 L1920.000,15.021 L1920.000,39.075 L0.001,39.075 L0.001,15.013 L271.884,15.013 L279.537,6.930 L292.458,6.930 L308.426,24.036 L308.449,24.013 L308.467,24.036 L317.638,15.021 L463.241,15.021 L466.539,18.558 L461.031,24.036 L472.035,24.036 L466.539,18.558 L469.844,15.021 L551.557,15.021 L556.251,10.578 L565.497,1.358 L571.663,7.066 L602.910,7.055 L607.919,7.055 L620.578,19.983 L654.209,19.983 L661.448,12.957 L735.709,12.995 L741.480,18.554 L750.129,9.930 L753.020,12.995 L918.181,12.957 L930.942,0.066 L954.993,24.036 L955.000,24.024 L955.012,24.036 L964.064,15.013 L967.906,15.013 L970.005,17.106 L966.670,20.419 L973.326,20.419 L970.005,17.106 L972.067,15.055 L1050.000,15.023 L1050.000,15.013 L1064.030,15.017 L1072.000,15.013 L1072.000,15.019 L1225.933,15.055 L1227.994,17.106 L1224.674,20.419 L1231.331,20.419 L1227.994,17.106 L1230.094,15.013 L1233.936,15.013 L1242.989,24.036 L1243.000,24.024 L1243.007,24.036 L1267.058,0.066 L1279.819,12.957 L1368.980,12.995 L1371.871,9.930 L1380.520,18.554 L1386.290,13.057 L1635.552,13.019 L1642.790,19.983 L1676.422,19.983 L1689.080,6.992 L1725.337,7.003 L1731.502,1.358 L1740.749,10.578 L1745.443,15.021 L1827.156,15.021 L1830.461,18.558 L1824.965,24.036 ZM341.624,18.857 L339.889,18.857 L339.889,24.036 L341.624,24.036 L341.624,18.857 ZM344.248,18.857 L342.518,18.857 L342.518,24.036 L344.248,24.036 L344.248,18.857 ZM356.370,18.857 L354.640,18.857 L354.640,24.036 L356.370,24.036 L356.370,18.857 ZM377.168,18.857 L371.973,18.857 L371.973,24.036 L377.168,24.036 L377.168,18.857 ZM584.675,12.348 L582.941,12.348 L582.941,14.073 L584.675,14.073 L584.675,12.348 ZM591.316,12.348 L589.582,12.348 L589.582,17.526 L591.316,17.526 L591.316,12.348 ZM604.751,12.348 L603.017,12.348 L603.017,14.073 L604.751,14.073 L604.751,12.348 ZM604.751,15.802 L603.017,15.802 L603.017,17.526 L604.751,17.526 L604.751,15.802 ZM1693.983,12.348 L1692.249,12.348 L1692.249,14.073 L1693.983,14.073 L1693.983,12.348 ZM1693.983,15.802 L1692.249,15.802 L1692.249,17.526 L1693.983,17.526 L1693.983,15.802 ZM1707.418,12.348 L1705.683,12.348 L1705.683,17.526 L1707.418,17.526 L1707.418,12.348 ZM1714.059,12.348 L1712.324,12.348 L1712.324,14.073 L1714.059,14.073 L1714.059,12.348 ZM463.214,14.994 L469.871,14.994 L469.844,15.021 L463.241,15.021 L463.214,14.994 ZM754.222,5.976 L750.129,9.930 L746.025,5.976 L754.222,5.976 ZM1375.975,5.976 L1371.871,9.930 L1367.778,5.976 L1375.975,5.976 Z"/>
</svg>
